(Exported by FreeCAD)
(Post Processor: smoothie_post)
(Output Time:2021-10-22 16:17:27.428913)
(begin preamble)
G17 G90
G21
(begin operation: Fixture)
G54
(finish operation: Fixture)
(begin operation: TC: Default Tool)
(TC: Default Tool)
M6 T1.0
M3 S0.0
(finish operation: TC: Default Tool)
(begin operation: Pocket_Shape)
(Pocket_Shape)
G0 Z5.0000
G0 X26.7382 Y28.4022
G0 Z3.0000
G1 X26.7382 Y28.4022 Z-3.0000 S0.0
G1 X26.7382 Y21.4022 Z-3.0000 S0.0
G1 X21.2382 Y21.4022 Z-3.0000 S0.0
G1 X21.2382 Y28.4022 Z-3.0000 S0.0
G1 X26.7382 Y28.4022 Z-3.0000 S0.0
G0 Z5.0000
G0 X21.2382 Y24.3875 Z5.0000
G0 X21.2382 Y24.3875 Z3.0000
G1 X21.2382 Y24.3875 Z-3.0000 S0.0
G1 X25.2529 Y28.4022 Z-3.0000 S0.0
G1 X21.2382 Y28.4022 Z-3.0000 S0.0
G1 X21.2382 Y24.3875 Z-3.0000 S0.0
G1 X21.2382 Y21.4022 Z-3.0000 S0.0
G1 X22.4956 Y21.4022 Z-3.0000 S0.0
G1 X26.7382 Y25.6449 Z-3.0000 S0.0
G1 X26.7382 Y21.4022 Z-3.0000 S0.0
G1 X26.7382 Y21.4022 Z-5.0000 S0.0
G1 X26.7382 Y25.6449 Z-5.0000 S0.0
G1 X22.4956 Y21.4022 Z-5.0000 S0.0
G1 X21.2382 Y21.4022 Z-5.0000 S0.0
G1 X21.2382 Y24.3875 Z-5.0000 S0.0
G1 X21.2382 Y28.4022 Z-5.0000 S0.0
G1 X25.2529 Y28.4022 Z-5.0000 S0.0
G1 X21.2382 Y24.3875 Z-5.0000 S0.0
G1 X21.2382 Y24.3875 Z-5.0000 S0.0
G1 X21.2382 Y28.4022 Z-5.0000 S0.0
G1 X26.7382 Y28.4022 Z-5.0000 S0.0
G1 X26.7382 Y21.4022 Z-5.0000 S0.0
G1 X21.2382 Y21.4022 Z-5.0000 S0.0
G1 X21.2382 Y24.3875 Z-5.0000 S0.0
G0 Z5.0000
G0 Z5.0000
G0 X21.2382 Y24.3875
G0 X15.3012 Y58.2804
G0 X15.3012 Y58.2804 Z3.0000
G1 X15.3012 Y58.2804 Z-3.0000 S0.0
G2 X15.1305 Y58.2591 Z-3.0000 I-0.3012 J1.7196 S0.0
G2 X14.8695 Y61.7409 Z-3.0000 I-0.1305 J1.7409 S0.0
G2 X15.3012 Y58.2804 Z-3.0000 I0.1305 J-1.7409 S0.0
G0 Z5.0000
G0 X16.2798 Y58.8126 Z5.0000
G0 X16.2798 Y58.8126 Z3.0000
G1 X16.2798 Y58.8126 Z-3.0000 S0.0
G3 X14.9655 Y61.7409 Z-3.0000 I-1.2752 J1.1868 S0.0
G1 X13.2566 Y60.0320 Z-3.0000 S0.0
G2 X14.9655 Y61.7409 Z-3.0000 I1.7331 J-0.0242 S0.0
G1 X14.9655 Y61.7409 Z-5.0000 S0.0
G3 X13.2566 Y60.0320 Z-5.0000 I0.0242 J-1.7331 S0.0
G1 X14.9655 Y61.7409 Z-5.0000 S0.0
G2 X16.2798 Y58.8126 Z-5.0000 I0.0390 J-1.7416 S0.0
G0 Z5.0000
G0 Z5.0000
G0 Z3.0000
G1 X16.2798 Y58.8126 Z-5.0000 S0.0
G2 X15.1305 Y58.2591 Z-5.0000 I-1.2798 J1.1874 S0.0
G2 X14.8695 Y61.7409 Z-5.0000 I-0.1305 J1.7409 S0.0
G2 X16.2798 Y58.8126 Z-5.0000 I0.1305 J-1.7409 S0.0
G0 Z5.0000
G0 Z5.0000
G0 X16.2798 Y58.8126
G0 X58.6365 Y40.5867
G0 X58.6365 Y40.5867 Z3.0000
G1 X58.6365 Y40.5867 Z-3.0000 S0.0
G2 X61.4843 Y40.0000 Z-3.0000 I1.3635 J-0.5867 S0.0
G2 X58.5157 Y40.0000 Z-3.0000 I-1.4843 J0.0000 S0.0
G2 X58.6365 Y40.5867 Z-3.0000 I1.4843 J0.0000 S0.0
G1 X58.6365 Y40.5867 Z-3.0000 S0.0
G2 X60.8725 Y41.2009 Z-3.0000 I1.3635 J-0.5867 S0.0
G2 X59.1275 Y38.7991 Z-3.0000 I-0.8725 J-1.2009 S0.0
G2 X58.6365 Y40.5867 Z-3.0000 I0.8725 J1.2009 S0.0
G1 X58.6365 Y40.5867 Z-5.0000 S0.0
G2 X60.8725 Y41.2009 Z-5.0000 I1.3635 J-0.5867 S0.0
G2 X59.1275 Y38.7991 Z-5.0000 I-0.8725 J-1.2009 S0.0
G2 X58.6365 Y40.5867 Z-5.0000 I0.8725 J1.2009 S0.0
G1 X58.6365 Y40.5867 Z-5.0000 S0.0
G2 X61.4843 Y40.0000 Z-5.0000 I1.3635 J-0.5867 S0.0
G2 X58.5157 Y40.0000 Z-5.0000 I-1.4843 J0.0000 S0.0
G2 X58.6365 Y40.5867 Z-5.0000 I1.4843 J0.0000 S0.0
G0 Z5.0000
G0 Z5.0000
G0 X58.6365 Y40.5867
G0 X59.9019 Y21.4811
G0 X59.9019 Y21.4811 Z3.0000
G1 X59.9019 Y21.4811 Z-3.0000 S0.0
G2 X60.0000 Y21.4843 Z-3.0000 I0.0981 J-1.4811 S0.0
G2 X60.0000 Y18.5157 Z-3.0000 I0.0000 J-1.4843 S0.0
G2 X59.9019 Y21.4811 Z-3.0000 I0.0000 J1.4843 S0.0
G0 Z5.0000
G0 Y21.4811 Z5.0000
G0 Y21.4811 Z3.0000
G1 X59.9019 Y21.4811 Z-3.0000 S0.0
G2 X61.2009 Y19.1275 Z-3.0000 I0.0981 J-1.4811 S0.0
G2 X58.7991 Y20.8725 Z-3.0000 I-1.2009 J0.8725 S0.0
G2 X59.9019 Y21.4811 Z-3.0000 I1.2009 J-0.8725 S0.0
G1 X59.9019 Y21.4811 Z-5.0000 S0.0
G2 X61.2009 Y19.1275 Z-5.0000 I0.0981 J-1.4811 S0.0
G2 X58.7991 Y20.8725 Z-5.0000 I-1.2009 J0.8725 S0.0
G2 X59.9019 Y21.4811 Z-5.0000 I1.2009 J-0.8725 S0.0
G0 Z5.0000
G0 Y21.4811 Z5.0000
G0 Y21.4811 Z3.0000
G1 X59.9019 Y21.4811 Z-5.0000 S0.0
G2 X60.0000 Y21.4843 Z-5.0000 I0.0981 J-1.4811 S0.0
G2 X60.0000 Y18.5157 Z-5.0000 I0.0000 J-1.4843 S0.0
G2 X59.9019 Y21.4811 Z-5.0000 I0.0000 J1.4843 S0.0
G0 Z5.0000
G0 Z5.0000
G0 X59.9019 Y21.4811
G0 X83.3750 Y34.1247
G0 X83.3750 Y34.1247 Z3.0000
G1 X83.3750 Y34.1247 Z-3.0000 S0.0
G2 X84.8621 Y36.8406 Z-3.0000 I1.6250 J0.8753 S0.0
G2 X85.1379 Y33.1594 Z-3.0000 I0.1379 J-1.8406 S0.0
G2 X83.3750 Y34.1247 Z-3.0000 I-0.1379 J1.8406 S0.0
G0 Z5.0000
G0 X86.3531 Y33.7445 Z5.0000
G0 X86.3531 Y33.7445 Z3.0000
G1 X86.3531 Y33.7445 Z-3.0000 S0.0
G3 X85.1975 Y36.8317 Z-3.0000 I-1.3491 J1.2549 S0.0
G1 X83.1690 Y34.8031 Z-3.0000 S0.0
G2 X85.1975 Y36.8317 Z-3.0000 I1.8240 J0.2045 S0.0
G1 X85.1975 Y36.8317 Z-5.0000 S0.0
G3 X83.1690 Y34.8031 Z-5.0000 I-0.2045 J-1.8240 S0.0
G1 X85.1975 Y36.8317 Z-5.0000 S0.0
G2 X86.3531 Y33.7445 Z-5.0000 I-0.1935 J-1.8323 S0.0
G0 Z5.0000
G0 X86.3531 Y33.7445 Z5.0000
G0 X86.3531 Y33.7445 Z3.0000
G1 X86.3531 Y33.7445 Z-5.0000 S0.0
G2 X85.1379 Y33.1594 Z-5.0000 I-1.3531 J1.2555 S0.0
G2 X84.8621 Y36.8406 Z-5.0000 I-0.1379 J1.8406 S0.0
G2 X86.3531 Y33.7445 Z-5.0000 I0.1379 J-1.8406 S0.0
G0 Z5.0000
G0 Z5.0000
G0 X86.3531 Y33.7445
G0 X85.1448 Y48.2602
G0 X85.1448 Y48.2602 Z3.0000
G1 X85.1448 Y48.2602 Z-3.0000 S0.0
G2 X85.1305 Y48.2591 Z-3.0000 I-0.1448 J1.7398 S0.0
G2 X84.8695 Y51.7409 Z-3.0000 I-0.1305 J1.7409 S0.0
G2 X85.1448 Y48.2602 Z-3.0000 I0.1305 J-1.7409 S0.0
G0 Z5.0000
G0 X86.2798 Y48.8126 Z5.0000
G0 X86.2798 Y48.8126 Z3.0000
G1 X86.2798 Y48.8126 Z-3.0000 S0.0
G3 X84.9655 Y51.7409 Z-3.0000 I-1.2752 J1.1868 S0.0
G1 X83.2566 Y50.0320 Z-3.0000 S0.0
G2 X84.9655 Y51.7409 Z-3.0000 I1.7331 J-0.0242 S0.0
G1 X84.9655 Y51.7409 Z-5.0000 S0.0
G3 X83.2566 Y50.0320 Z-5.0000 I0.0242 J-1.7331 S0.0
G1 X84.9655 Y51.7409 Z-5.0000 S0.0
G2 X86.2798 Y48.8126 Z-5.0000 I0.0390 J-1.7416 S0.0
G0 Z5.0000
G0 Z5.0000
G0 Z3.0000
G1 X86.2798 Y48.8126 Z-5.0000 S0.0
G2 X85.1305 Y48.2591 Z-5.0000 I-1.2798 J1.1874 S0.0
G2 X84.8695 Y51.7409 Z-5.0000 I-0.1305 J1.7409 S0.0
G2 X86.2798 Y48.8126 Z-5.0000 I0.1305 J-1.7409 S0.0
G0 Z5.0000
G0 Z5.0000
G0 X86.2798 Y48.8126
G0 X85.1379 Y63.1594
G0 X85.1379 Y63.1594 Z3.0000
G1 X85.1379 Y63.1594 Z-3.0000 S0.0
G2 X84.8621 Y66.8406 Z-3.0000 I-0.1379 J1.8406 S0.0
G2 X85.1379 Y63.1594 Z-3.0000 I0.1379 J-1.8406 S0.0
G0 Z5.0000
G0 X86.3531 Y63.7445 Z5.0000
G0 X86.3531 Y63.7445 Z3.0000
G1 X86.3531 Y63.7445 Z-3.0000 S0.0
G3 X85.1975 Y66.8317 Z-3.0000 I-1.3491 J1.2549 S0.0
G1 X83.1690 Y64.8031 Z-3.0000 S0.0
G2 X85.1975 Y66.8317 Z-3.0000 I1.8240 J0.2045 S0.0
G1 X85.1975 Y66.8317 Z-5.0000 S0.0
G3 X83.1690 Y64.8031 Z-5.0000 I-0.2045 J-1.8240 S0.0
G1 X85.1975 Y66.8317 Z-5.0000 S0.0
G2 X86.3531 Y63.7445 Z-5.0000 I-0.1935 J-1.8323 S0.0
G0 Z5.0000
G0 X86.3531 Y63.7445 Z5.0000
G0 X86.3531 Y63.7445 Z3.0000
G1 X86.3531 Y63.7445 Z-5.0000 S0.0
G2 X85.1379 Y63.1594 Z-5.0000 I-1.3531 J1.2555 S0.0
G2 X84.8621 Y66.8406 Z-5.0000 I-0.1379 J1.8406 S0.0
G2 X86.3531 Y63.7445 Z-5.0000 I0.1379 J-1.8406 S0.0
G0 Z5.0000
G0 Z5.0000
G0 X86.3531 Y63.7445
G0 X71.5000
G0 X71.5000 Z3.0000
G1 X71.5000 Y63.7445 Z-3.0000 S0.0
G1 X71.5000 Y55.5000 Z-3.0000 S0.0
G1 X28.5000 Y55.5000 Z-3.0000 S0.0
G1 X28.5000 Y68.5000 Z-3.0000 S0.0
G1 X71.5000 Y68.5000 Z-3.0000 S0.0
G1 X71.5000 Y63.7445 Z-3.0000 S0.0
G0 Z5.0000
G0 Y55.5000 Z5.0000
G0 Y55.5000 Z3.0000
G1 X71.5000 Y55.5000 Z-3.0000 S0.0
G1 X71.5000 Y59.7426 Z-3.0000 S0.0
G1 X67.2574 Y55.5000 Z-3.0000 S0.0
G1 X63.0147 Y55.5000 Z-3.0000 S0.0
G1 X71.5000 Y63.9853 Z-3.0000 S0.0
G1 X71.5000 Y68.2279 Z-3.0000 S0.0
G1 X58.7721 Y55.5000 Z-3.0000 S0.0
G1 X54.5294 Y55.5000 Z-3.0000 S0.0
G1 X67.5294 Y68.5000 Z-3.0000 S0.0
G1 X63.2868 Y68.5000 Z-3.0000 S0.0
G1 X50.2868 Y55.5000 Z-3.0000 S0.0
G1 X46.0442 Y55.5000 Z-3.0000 S0.0
G1 X59.0442 Y68.5000 Z-3.0000 S0.0
G1 X54.8015 Y68.5000 Z-3.0000 S0.0
G1 X41.8015 Y55.5000 Z-3.0000 S0.0
G1 X37.5589 Y55.5000 Z-3.0000 S0.0
G1 X50.5589 Y68.5000 Z-3.0000 S0.0
G1 X46.3162 Y68.5000 Z-3.0000 S0.0
G1 X33.3162 Y55.5000 Z-3.0000 S0.0
G1 X29.0736 Y55.5000 Z-3.0000 S0.0
G1 X42.0736 Y68.5000 Z-3.0000 S0.0
G1 X37.8310 Y68.5000 Z-3.0000 S0.0
G1 X28.5000 Y59.1690 Z-3.0000 S0.0
G1 X28.5000 Y63.4117 Z-3.0000 S0.0
G1 X33.5883 Y68.5000 Z-3.0000 S0.0
G1 X29.3457 Y68.5000 Z-3.0000 S0.0
G1 X28.5000 Y68.5000 Z-3.0000 S0.0
G1 X28.5000 Y67.6543 Z-3.0000 S0.0
G1 X29.3457 Y68.5000 Z-3.0000 S0.0
G1 X29.3457 Y68.5000 Z-5.0000 S0.0
G1 X28.5000 Y67.6543 Z-5.0000 S0.0
G1 X28.5000 Y68.5000 Z-5.0000 S0.0
G1 X29.3457 Y68.5000 Z-5.0000 S0.0
G1 X33.5883 Y68.5000 Z-5.0000 S0.0
G1 X28.5000 Y63.4117 Z-5.0000 S0.0
G1 X28.5000 Y59.1690 Z-5.0000 S0.0
G1 X37.8310 Y68.5000 Z-5.0000 S0.0
G1 X42.0736 Y68.5000 Z-5.0000 S0.0
G1 X29.0736 Y55.5000 Z-5.0000 S0.0
G1 X33.3162 Y55.5000 Z-5.0000 S0.0
G1 X46.3162 Y68.5000 Z-5.0000 S0.0
G1 X50.5589 Y68.5000 Z-5.0000 S0.0
G1 X37.5589 Y55.5000 Z-5.0000 S0.0
G1 X41.8015 Y55.5000 Z-5.0000 S0.0
G1 X54.8015 Y68.5000 Z-5.0000 S0.0
G1 X59.0442 Y68.5000 Z-5.0000 S0.0
G1 X46.0442 Y55.5000 Z-5.0000 S0.0
G1 X50.2868 Y55.5000 Z-5.0000 S0.0
G1 X63.2868 Y68.5000 Z-5.0000 S0.0
G1 X67.5294 Y68.5000 Z-5.0000 S0.0
G1 X54.5294 Y55.5000 Z-5.0000 S0.0
G1 X58.7721 Y55.5000 Z-5.0000 S0.0
G1 X71.5000 Y68.2279 Z-5.0000 S0.0
G1 X71.5000 Y63.9853 Z-5.0000 S0.0
G1 X63.0147 Y55.5000 Z-5.0000 S0.0
G1 X67.2574 Y55.5000 Z-5.0000 S0.0
G1 X71.5000 Y59.7426 Z-5.0000 S0.0
G1 X71.5000 Y55.5000 Z-5.0000 S0.0
G1 X71.5000 Y55.5000 Z-5.0000 S0.0
G1 X28.5000 Y55.5000 Z-5.0000 S0.0
G1 X28.5000 Y68.5000 Z-5.0000 S0.0
G1 X71.5000 Y68.5000 Z-5.0000 S0.0
G1 X71.5000 Y55.5000 Z-5.0000 S0.0
G0 Z5.0000
G0 Z5.0000
(finish operation: Pocket_Shape)
(begin operation: Drilling)
(Drilling)
(Begin Drilling)
G0 Z5.0000
G90
G99
G81 X15.0000 Y60.0000 Z-5.0000 F0.0000 R1.0000
G80
G0 Z3.0000
G81 X60.0000 Y40.0000 Z-5.0000 F0.0000 R1.0000
G80
G0 Z3.0000
G81 X60.0000 Y20.0000 Z-5.0000 F0.0000 R1.0000
G80
G0 Z3.0000
G81 X85.0000 Y35.0000 Z-5.0000 F0.0000 R1.0000
G80
G0 Z3.0000
G81 X85.0000 Y50.0000 Z-5.0000 F0.0000 R1.0000
G80
G0 Z3.0000
G81 X85.0000 Y65.0000 Z-5.0000 F0.0000 R1.0000
G80
G0 Z3.0000
G0 Z5.0000
(finish operation: Drilling)
(begin postamble)
M05
G17 G90
M2
