(Exported by FreeCAD)
(Post Processor: smoothie_post)
(Output Time:2021-11-03 00:27:14.927191)
(begin preamble)
G17 G90
G21
(begin operation: Fixture)
G54
(finish operation: Fixture)
(begin operation: TC: Default Tool)
(TC: Default Tool)
M6 T1.0
M3 S0.0
(finish operation: TC: Default Tool)
(begin operation: Pocket_Shape)
(Pocket_Shape)
G0 Z5.0000
G0 X26.7382 Y28.4022
G0 Z3.0000
G1 X26.7382 Y28.4022 Z-3.0000 S0.0
G1 X26.7382 Y21.4022 Z-3.0000 S0.0
G1 X21.2382 Y21.4022 Z-3.0000 S0.0
G1 X21.2382 Y28.4022 Z-3.0000 S0.0
G1 X26.7382 Y28.4022 Z-3.0000 S0.0
G0 Z5.0000
G0 X21.2382 Y24.3875 Z5.0000
G0 X21.2382 Y24.3875 Z3.0000
G1 X21.2382 Y24.3875 Z-3.0000 S0.0
G1 X25.2529 Y28.4022 Z-3.0000 S0.0
G1 X21.2382 Y28.4022 Z-3.0000 S0.0
G1 X21.2382 Y24.3875 Z-3.0000 S0.0
G1 X21.2382 Y21.4022 Z-3.0000 S0.0
G1 X22.4956 Y21.4022 Z-3.0000 S0.0
G1 X26.7382 Y25.6449 Z-3.0000 S0.0
G1 X26.7382 Y21.4022 Z-3.0000 S0.0
G1 X26.7382 Y21.4022 Z-5.0000 S0.0
G1 X26.7382 Y25.6449 Z-5.0000 S0.0
G1 X22.4956 Y21.4022 Z-5.0000 S0.0
G1 X21.2382 Y21.4022 Z-5.0000 S0.0
G1 X21.2382 Y24.3875 Z-5.0000 S0.0
G1 X21.2382 Y28.4022 Z-5.0000 S0.0
G1 X25.2529 Y28.4022 Z-5.0000 S0.0
G1 X21.2382 Y24.3875 Z-5.0000 S0.0
G1 X21.2382 Y24.3875 Z-5.0000 S0.0
G1 X21.2382 Y28.4022 Z-5.0000 S0.0
G1 X26.7382 Y28.4022 Z-5.0000 S0.0
G1 X26.7382 Y21.4022 Z-5.0000 S0.0
G1 X21.2382 Y21.4022 Z-5.0000 S0.0
G1 X21.2382 Y24.3875 Z-5.0000 S0.0
G0 Z5.0000
G0 Z5.0000
G0 X21.2382 Y24.3875
G0 X15.3012 Y58.2804
G0 X15.3012 Y58.2804 Z3.0000
G1 X15.3012 Y58.2804 Z-3.0000 S0.0
G2 X15.1305 Y58.2591 Z-3.0000 I-0.3012 J1.7196 S0.0
G2 X14.8695 Y61.7409 Z-3.0000 I-0.1305 J1.7409 S0.0
G2 X15.3012 Y58.2804 Z-3.0000 I0.1305 J-1.7409 S0.0
G0 Z5.0000
G0 X16.2798 Y58.8126 Z5.0000
G0 X16.2798 Y58.8126 Z3.0000
G1 X16.2798 Y58.8126 Z-3.0000 S0.0
G3 X14.9655 Y61.7409 Z-3.0000 I-1.2752 J1.1868 S0.0
G1 X13.2566 Y60.0320 Z-3.0000 S0.0
G2 X14.9655 Y61.7409 Z-3.0000 I1.7331 J-0.0242 S0.0
G1 X14.9655 Y61.7409 Z-5.0000 S0.0
G3 X13.2566 Y60.0320 Z-5.0000 I0.0242 J-1.7331 S0.0
G1 X14.9655 Y61.7409 Z-5.0000 S0.0
G2 X16.2798 Y58.8126 Z-5.0000 I0.0390 J-1.7416 S0.0
G0 Z5.0000
G0 Z5.0000
G0 Z3.0000
G1 X16.2798 Y58.8126 Z-5.0000 S0.0
G2 X15.1305 Y58.2591 Z-5.0000 I-1.2798 J1.1874 S0.0
G2 X14.8695 Y61.7409 Z-5.0000 I-0.1305 J1.7409 S0.0
G2 X16.2798 Y58.8126 Z-5.0000 I0.1305 J-1.7409 S0.0
G0 Z5.0000
G0 Z5.0000
G0 X16.2798 Y58.8126
G0 X36.5000
G0 X36.5000 Z3.0000
G1 X36.5000 Y58.8126 Z-3.0000 S0.0
G1 X36.5000 Y68.5000 Z-3.0000 S0.0
G1 X61.5000 Y68.5000 Z-3.0000 S0.0
G1 X61.5000 Y51.5000 Z-3.0000 S0.0
G1 X36.5000 Y51.5000 Z-3.0000 S0.0
G1 X36.5000 Y58.8126 Z-3.0000 S0.0
G0 Z5.0000
G0 X40.3162 Y68.5000 Z5.0000
G0 X40.3162 Y68.5000 Z3.0000
G1 X40.3162 Y68.5000 Z-3.0000 S0.0
G1 X36.5000 Y68.5000 Z-3.0000 S0.0
G1 X36.5000 Y64.6838 Z-3.0000 S0.0
G1 X40.3162 Y68.5000 Z-3.0000 S0.0
G1 X44.5589 Y68.5000 Z-3.0000 S0.0
G1 X36.5000 Y60.4411 Z-3.0000 S0.0
G1 X36.5000 Y56.1985 Z-3.0000 S0.0
G1 X48.8015 Y68.5000 Z-3.0000 S0.0
G1 X53.0442 Y68.5000 Z-3.0000 S0.0
G1 X36.5000 Y51.9558 Z-3.0000 S0.0
G1 X36.5000 Y51.5000 Z-3.0000 S0.0
G1 X40.2868 Y51.5000 Z-3.0000 S0.0
G1 X57.2868 Y68.5000 Z-3.0000 S0.0
G1 X61.5000 Y68.5000 Z-3.0000 S0.0
G1 X61.5000 Y68.4706 Z-3.0000 S0.0
G1 X44.5294 Y51.5000 Z-3.0000 S0.0
G1 X48.7721 Y51.5000 Z-3.0000 S0.0
G1 X61.5000 Y64.2279 Z-3.0000 S0.0
G1 X61.5000 Y59.9853 Z-3.0000 S0.0
G1 X53.0147 Y51.5000 Z-3.0000 S0.0
G1 X57.2574 Y51.5000 Z-3.0000 S0.0
G1 X61.5000 Y55.7426 Z-3.0000 S0.0
G1 X61.5000 Y51.5000 Z-3.0000 S0.0
G1 X61.5000 Y51.5000 Z-5.0000 S0.0
G1 X36.5000 Y51.5000 Z-5.0000 S0.0
G1 X36.5000 Y68.5000 Z-5.0000 S0.0
G1 X61.5000 Y68.5000 Z-5.0000 S0.0
G1 X61.5000 Y51.5000 Z-5.0000 S0.0
G1 X61.5000 Y51.5000 Z-5.0000 S0.0
G1 X61.5000 Y55.7426 Z-5.0000 S0.0
G1 X57.2574 Y51.5000 Z-5.0000 S0.0
G1 X53.0147 Y51.5000 Z-5.0000 S0.0
G1 X61.5000 Y59.9853 Z-5.0000 S0.0
G1 X61.5000 Y64.2279 Z-5.0000 S0.0
G1 X48.7721 Y51.5000 Z-5.0000 S0.0
G1 X44.5294 Y51.5000 Z-5.0000 S0.0
G1 X61.5000 Y68.4706 Z-5.0000 S0.0
G1 X61.5000 Y68.5000 Z-5.0000 S0.0
G1 X57.2868 Y68.5000 Z-5.0000 S0.0
G1 X40.2868 Y51.5000 Z-5.0000 S0.0
G1 X36.5000 Y51.5000 Z-5.0000 S0.0
G1 X36.5000 Y51.9558 Z-5.0000 S0.0
G1 X53.0442 Y68.5000 Z-5.0000 S0.0
G1 X48.8015 Y68.5000 Z-5.0000 S0.0
G1 X36.5000 Y56.1985 Z-5.0000 S0.0
G1 X36.5000 Y60.4411 Z-5.0000 S0.0
G1 X44.5589 Y68.5000 Z-5.0000 S0.0
G1 X40.3162 Y68.5000 Z-5.0000 S0.0
G1 X36.5000 Y64.6838 Z-5.0000 S0.0
G1 X36.5000 Y68.5000 Z-5.0000 S0.0
G1 X40.3162 Y68.5000 Z-5.0000 S0.0
G0 Z5.0000
G0 Z5.0000
G0 X40.3162 Y68.5000
G0 X83.1598 Y65.1441
G0 X83.1598 Y65.1441 Z3.0000
G1 X83.1598 Y65.1441 Z-3.0000 S0.0
G2 X84.8621 Y66.8406 Z-3.0000 I1.8402 J-0.1441 S0.0
G2 X85.1379 Y63.1594 Z-3.0000 I0.1379 J-1.8406 S0.0
G2 X83.1598 Y65.1441 Z-3.0000 I-0.1379 J1.8406 S0.0
G0 Z5.0000
G0 X85.1975 Y66.8317 Z5.0000
G0 X85.1975 Y66.8317 Z3.0000
G1 X85.1975 Y66.8317 Z-3.0000 S0.0
G3 X83.1690 Y64.8031 Z-3.0000 I-0.2045 J-1.8240 S0.0
G1 X85.1975 Y66.8317 Z-3.0000 S0.0
G2 X86.3531 Y63.7445 Z-3.0000 I-0.1935 J-1.8323 S0.0
G1 X86.3531 Y63.7445 Z-5.0000 S0.0
G3 X85.1975 Y66.8317 Z-5.0000 I-1.3491 J1.2549 S0.0
G1 X83.1690 Y64.8031 Z-5.0000 S0.0
G2 X85.1975 Y66.8317 Z-5.0000 I1.8240 J0.2045 S0.0
G0 Z5.0000
G0 X85.1979 Y66.8352 Z5.0000
G0 X85.1979 Y66.8352 Z3.0000
G1 X85.1979 Y66.8352 Z-5.0000 S0.0
G2 X85.1379 Y63.1594 Z-5.0000 I-0.1979 J-1.8352 S0.0
G2 X84.8621 Y66.8406 Z-5.0000 I-0.1379 J1.8406 S0.0
G2 X85.1979 Y66.8352 Z-5.0000 I0.1379 J-1.8406 S0.0
G0 Z5.0000
G0 Z5.0000
G0 X85.1979 Y66.8352
G0 X85.0205 Y51.7457
G0 X85.0205 Y51.7457 Z3.0000
G1 X85.0205 Y51.7457 Z-3.0000 S0.0
G2 X85.1305 Y48.2591 Z-3.0000 I-0.0205 J-1.7457 S0.0
G2 X84.8695 Y51.7409 Z-3.0000 I-0.1305 J1.7409 S0.0
G2 X85.0205 Y51.7457 Z-3.0000 I0.1305 J-1.7409 S0.0
G0 Z5.0000
G0 X84.9655 Y51.7409 Z5.0000
G0 X84.9655 Y51.7409 Z3.0000
G1 X84.9655 Y51.7409 Z-3.0000 S0.0
G3 X83.2566 Y50.0320 Z-3.0000 I0.0242 J-1.7331 S0.0
G1 X84.9655 Y51.7409 Z-3.0000 S0.0
G2 X86.2798 Y48.8126 Z-3.0000 I0.0390 J-1.7416 S0.0
G1 X86.2798 Y48.8126 Z-5.0000 S0.0
G3 X84.9655 Y51.7409 Z-5.0000 I-1.2752 J1.1868 S0.0
G1 X83.2566 Y50.0320 Z-5.0000 S0.0
G2 X84.9655 Y51.7409 Z-5.0000 I1.7331 J-0.0242 S0.0
G0 Z5.0000
G0 X84.9654 Y51.7455 Z5.0000
G0 X84.9654 Y51.7455 Z3.0000
G1 X84.9654 Y51.7455 Z-5.0000 S0.0
G2 X85.1305 Y48.2591 Z-5.0000 I0.0346 J-1.7455 S0.0
G2 X84.8695 Y51.7409 Z-5.0000 I-0.1305 J1.7409 S0.0
G2 X84.9654 Y51.7455 Z-5.0000 I0.1305 J-1.7409 S0.0
G0 Z5.0000
G0 Z5.0000
G0 X84.9654 Y51.7455
G0 X84.9962 Y36.8458
G0 X84.9962 Y36.8458 Z3.0000
G1 X84.9962 Y36.8458 Z-3.0000 S0.0
G2 X85.1379 Y33.1594 Z-3.0000 I0.0038 J-1.8458 S0.0
G2 X84.8621 Y36.8406 Z-3.0000 I-0.1379 J1.8406 S0.0
G2 X84.9962 Y36.8458 Z-3.0000 I0.1379 J-1.8406 S0.0
G0 Z5.0000
G0 X85.1975 Y36.8317 Z5.0000
G0 X85.1975 Y36.8317 Z3.0000
G1 X85.1975 Y36.8317 Z-3.0000 S0.0
G3 X83.1690 Y34.8031 Z-3.0000 I-0.2045 J-1.8240 S0.0
G1 X85.1975 Y36.8317 Z-3.0000 S0.0
G2 X86.3531 Y33.7445 Z-3.0000 I-0.1935 J-1.8323 S0.0
G1 X86.3531 Y33.7445 Z-5.0000 S0.0
G3 X85.1975 Y36.8317 Z-5.0000 I-1.3491 J1.2549 S0.0
G1 X83.1690 Y34.8031 Z-5.0000 S0.0
G2 X85.1975 Y36.8317 Z-5.0000 I1.8240 J0.2045 S0.0
G0 Z5.0000
G0 X85.1979 Y36.8352 Z5.0000
G0 X85.1979 Y36.8352 Z3.0000
G1 X85.1979 Y36.8352 Z-5.0000 S0.0
G2 X85.1379 Y33.1594 Z-5.0000 I-0.1979 J-1.8352 S0.0
G2 X84.8621 Y36.8406 Z-5.0000 I-0.1379 J1.8406 S0.0
G2 X85.1979 Y36.8352 Z-5.0000 I0.1379 J-1.8406 S0.0
G0 Z5.0000
G0 Z5.0000
G0 X85.1979 Y36.8352
G0 X61.4805 Y35.1214
G0 X61.4805 Y35.1214 Z3.0000
G1 X61.4805 Y35.1214 Z-3.0000 S0.0
G2 X60.0000 Y33.5300 Z-3.0000 I-1.4805 J-0.1070 S0.0
G2 X60.0000 Y36.4987 Z-3.0000 I0.0000 J1.4843 S0.0
G2 X61.4805 Y35.1214 Z-3.0000 I0.0000 J-1.4843 S0.0
G0 Z5.0000
G0 X61.4805 Z5.0000
G0 X61.4805 Z3.0000
G1 X61.4805 Y35.1214 Z-3.0000 S0.0
G2 X61.2009 Y34.1419 Z-3.0000 I-1.4805 J-0.1070 S0.0
G2 X58.7991 Y35.8869 Z-3.0000 I-1.2009 J0.8725 S0.0
G2 X61.4805 Y35.1214 Z-3.0000 I1.2009 J-0.8725 S0.0
G1 X61.4805 Y35.1214 Z-5.0000 S0.0
G2 X61.2009 Y34.1419 Z-5.0000 I-1.4805 J-0.1070 S0.0
G2 X58.7991 Y35.8869 Z-5.0000 I-1.2009 J0.8725 S0.0
G2 X61.4805 Y35.1214 Z-5.0000 I1.2009 J-0.8725 S0.0
G0 Z5.0000
G0 X61.4805 Z5.0000
G0 X61.4805 Z3.0000
G1 X61.4805 Y35.1214 Z-5.0000 S0.0
G2 X60.0000 Y33.5300 Z-5.0000 I-1.4805 J-0.1070 S0.0
G2 X60.0000 Y36.4987 Z-5.0000 I0.0000 J1.4843 S0.0
G2 X61.4805 Y35.1214 Z-5.0000 I0.0000 J-1.4843 S0.0
G0 Z5.0000
G0 Z5.0000
G0 X61.4805 Y35.1214
G0 X60.1210 Y18.4938
G0 X60.1210 Y18.4938 Z3.0000
G1 X60.1210 Y18.4938 Z-3.0000 S0.0
G2 X60.0000 Y15.5300 Z-3.0000 I-0.1210 J-1.4794 S0.0
G2 X60.0000 Y18.4987 Z-3.0000 I0.0000 J1.4843 S0.0
G2 X60.1210 Y18.4938 Z-3.0000 I0.0000 J-1.4843 S0.0
G0 Z5.0000
G0 Y18.4938 Z5.0000
G0 Y18.4938 Z3.0000
G1 X60.1210 Y18.4938 Z-3.0000 S0.0
G2 X61.2009 Y16.1419 Z-3.0000 I-0.1210 J-1.4794 S0.0
G2 X58.7991 Y17.8869 Z-3.0000 I-1.2009 J0.8725 S0.0
G2 X60.1210 Y18.4938 Z-3.0000 I1.2009 J-0.8725 S0.0
G1 X60.1210 Y18.4938 Z-5.0000 S0.0
G2 X61.2009 Y16.1419 Z-5.0000 I-0.1210 J-1.4794 S0.0
G2 X58.7991 Y17.8869 Z-5.0000 I-1.2009 J0.8725 S0.0
G2 X60.1210 Y18.4938 Z-5.0000 I1.2009 J-0.8725 S0.0
G0 Z5.0000
G0 Y18.4938 Z5.0000
G0 Y18.4938 Z3.0000
G1 X60.1210 Y18.4938 Z-5.0000 S0.0
G2 X60.0000 Y15.5300 Z-5.0000 I-0.1210 J-1.4794 S0.0
G2 X60.0000 Y18.4987 Z-5.0000 I0.0000 J1.4843 S0.0
G2 X60.1210 Y18.4938 Z-5.0000 I0.0000 J-1.4843 S0.0
G0 Z5.0000
G0 Z5.0000
(finish operation: Pocket_Shape)
(begin postamble)
M05
G17 G90
M2
